X: 33
T:Doon Reel
R:reel
Z:added by Alf 
M:4/4
L:1/8
Q:1/2=112
K:D
F|:DFAF BFAF|DEFD E3F|DFAF BFAF|(3Bcd ec dBAF|
DFAF BFAF|DEFD E3F|DFAF BFAF|(3Bcd ec d2zF:|
|:d2fd Adfd|d2fd edBA|d2fd Adfd|g2fg edBA|
d2fd Adfd|d2fd e3f|gefd ecdA|BABc dBAF:|
